X: 1
T: The Long, Hot Shower
C: Betsy Branch
B: The Portland Collection: Volume 2
R: jig
M: 6/8
L: 1/8
K: Dmix
|: A | "D"cdd dcA | cdA "C"G3 | "D"FED F2G | "Am"ABA cec |
"D"cdd dcA | cdA "C"G3 | "D"FED "Am"CEC | "D" D3 D2 :|
|: (_B, | "G7"=B,2)D =FED | ABA =FED | B,2D =FED | "D"A,B,A, A,2 (_B, |
"G7"=B,2)D =FED | ABA A3 |1 "Am"dcA G2A | "D"=FED D2 :|2"Am"GFG AGA | cAc cec |]
